public/assets/icons/contact/or.svg

<svg xmlns="http://www.w3.org/2000/svg" xmlns:xlink="http://www.w3.org/1999/xlink" width="1280" zoomAndPan="magnify" viewBox="0 0 960 599.999999" height="800" preserveAspectRatio="xMidYMid meet" version="1.0"><defs><clipPath id="f42e6c300d"><path d="M 317.152344 255 L 596.902344 255 L 596.902344 299 L 317.152344 299 Z M 317.152344 255 " clip-rule="nonzero"/></clipPath></defs><g clip-path="url(#f42e6c300d)"><path fill="#c0779d" d="M 427.039062 269.808594 C 422.535156 273.636719 418.136719 276.570312 413.855469 278.488281 C 396.953125 286.484375 379.933594 282.542969 362.917969 277.472656 C 345.34375 272.402344 328.890625 267.671875 318.300781 284.574219 C 318.074219 285.136719 317.175781 284.574219 317.511719 283.898438 C 328.441406 266.433594 345.234375 271.390625 363.261719 276.460938 C 379.9375 281.535156 396.839844 285.367188 413.410156 277.472656 C 419.160156 274.882812 424.5625 270.9375 430.539062 265.191406 C 431.324219 264.515625 432.230469 263.839844 433.128906 263.273438 C 435.609375 261.921875 441.921875 262.371094 438.089844 264.398438 C 430.769531 268.675781 425.582031 285.808594 433.8125 288.398438 C 438.882812 289.972656 446.65625 282.425781 449.25 276.449219 C 443.613281 276.226562 440.570312 273.070312 439.898438 267.773438 C 438.660156 256.84375 450.824219 250.421875 452.855469 262.585938 C 453.53125 266.527344 452.40625 271.488281 450.9375 275.207031 C 456.011719 274.644531 461.304688 270.246094 464.796875 266.640625 C 465.359375 265.964844 466.257812 266.753906 465.585938 267.316406 C 461.753906 271.371094 456.003906 275.996094 450.480469 276.445312 C 447.328125 283.882812 439.890625 290.640625 433.242188 289.964844 C 424.789062 289.066406 422.652344 280.726562 425.46875 272.953125 C 425.914062 271.839844 426.363281 270.828125 427.039062 269.808594 Z M 451.71875 263.273438 C 450.144531 252.457031 440.222656 257.972656 441.242188 267.328125 C 441.804688 272.171875 444.507812 275.214844 449.695312 275.324219 C 451.15625 271.839844 452.28125 266.992188 451.71875 263.273438 Z M 500.0625 282.765625 C 516.964844 274.882812 533.984375 278.710938 551 283.78125 C 568.574219 288.851562 585.035156 293.582031 595.625 276.679688 C 595.847656 276.117188 596.75 276.679688 596.410156 277.355469 C 585.484375 294.820312 568.6875 289.867188 550.660156 284.792969 C 533.984375 279.71875 517.195312 276.113281 500.511719 283.78125 C 494.988281 286.371094 489.695312 289.867188 484.171875 295.390625 C 479.667969 299.894531 477.074219 299.78125 475.945312 296.851562 C 473.914062 291.664062 477.976562 279.722656 479.886719 273.976562 C 476.167969 278.820312 466.253906 289.640625 462.648438 285.699219 C 458.367188 280.96875 465.015625 263.609375 468.621094 258.199219 C 469.859375 255.945312 475.945312 256.960938 474.707031 259.097656 C 472 263.378906 463.777344 279.71875 465.917969 283.667969 C 467.722656 287.046875 476.730469 276.230469 480.792969 271.15625 C 482.367188 266.652344 484.171875 262.140625 485.867188 258.199219 C 486.878906 255.71875 493.414062 255.832031 492.628906 258.199219 C 492.289062 258.988281 481.019531 285.015625 479.554688 293.921875 C 478.992188 297.640625 480.230469 297.863281 483.386719 294.707031 C 489.015625 289.078125 494.652344 285.246094 500.0625 282.765625 Z M 500.0625 282.765625 " fill-opacity="1" fill-rule="nonzero"/></g></svg>

<svg xmlns="http://www.w3.org/2000/svg" version="1.0" viewBox="0 0 960 600">
    <defs>
        <clipPath id="a">
            <path d="M317.15 255H596.9v44H317.15Zm0 0"/>
        </clipPath>
    </defs>
    <g clip-path="url(#a)">
        <path fill="#c0779d" d="M427.04 269.8c-4.5 3.84-8.9 6.77-13.18 8.69-16.9 8-33.93 4.05-50.94-1.02-17.58-5.07-34.03-9.8-44.62 7.1-.23.57-1.12 0-.79-.67 10.93-17.47 27.72-12.5 45.75-7.44 16.68 5.08 33.58 8.9 50.15 1.01 5.75-2.59 11.15-6.53 17.13-12.28.78-.67 1.69-1.35 2.59-1.92 2.48-1.35 8.8-.9 4.96 1.13-7.32 4.28-12.5 21.4-4.28 24 5.07 1.57 12.85-5.97 15.44-11.95-5.64-.22-8.68-3.38-9.35-8.68-1.24-10.93 10.92-17.35 12.96-5.18.67 3.94-.45 8.9-1.92 12.62 5.07-.57 10.36-4.96 13.86-8.57.56-.68 1.46.11.79.68-3.84 4.05-9.59 8.68-15.11 9.13-3.15 7.43-10.59 14.2-17.24 13.51-8.45-.9-10.59-9.23-7.77-17 .44-1.12.9-2.13 1.57-3.15Zm24.68-6.53c-1.58-10.81-11.5-5.3-10.48 4.06.56 4.84 3.27 7.88 8.46 8 1.46-3.49 2.58-8.34 2.02-12.06Zm48.34 19.5c16.9-7.89 33.92-4.06 50.94 1.01 17.57 5.07 34.04 9.8 44.63-7.1.22-.56 1.12 0 .78.68-10.93 17.46-27.72 12.5-45.75 7.43-16.68-5.07-33.46-8.68-50.15-1a56.23 56.23 0 0 0-16.34 11.6c-4.5 4.5-7.1 4.4-8.22 1.46-2.04-5.19 2.03-17.13 3.94-22.87-3.72 4.84-13.64 15.66-17.24 11.72-4.28-4.73 2.37-22.1 5.97-27.5 1.24-2.25 7.33-1.24 6.09.9-2.71 4.28-10.93 20.62-8.8 24.57 1.81 3.38 10.82-7.44 14.88-12.51 1.58-4.5 3.38-9.02 5.08-12.96 1-2.48 7.54-2.37 6.76 0-.34.79-11.61 26.82-13.08 35.72-.56 3.72.68 3.94 3.84.79 5.63-5.63 11.26-9.46 16.67-11.94Zm0 0"/>
    </g>
</svg>
